X: 42423
T: West End, The
R: hornpipe
M: 4/4
K: Dmajor
|:AG|F/E/D FA d2dA|B/c/d ef gf ge|f/g/a fd eg ed|c2 A2 AB AG|
F/E/D FA d2dA|B/c/d ef gf ge|f/g/a fd eg ec|d2 dc d2:|
|:fg|af df af df|ge =ce ge ce|af df af df|e2 A2 AB AG|
F/E/D FA d2dA|B/c/d ef gf ge|f/g/a fd eg ec|d2 dc d2:|

